X:9525
T:Les moulins (Vincent Leutreau)
C:Trad 2, 47
M:2/4
L:1/16
K:C
cdec defd|efge a2c2|B2g2 A2f2|\
e2dc BcdB|cdec defd|
efge a2c2|B2g2 A2f2|gedc d3c/c/:|\
|:Gc-cc Bc-cc|A2dd cdB2|GB-Bd ggf2|
(3g2e2c2 (3A2F2D2|G2 cc Bc-cc|A2dd cd B2|\
GB-Bd ggf2|(3ege dc d4:|
